src/components/Icon/svg-icon/main/reply-all.svg

<svg xmlns="http://www.w3.org/2000/svg" width="24" height="24"><path fill="#677078" d="M7 8V5l-7 7 7 7v-3l-4-4 4-4zm6 1V5l-7 7 7 7v-4.1c5 0 8.5 1.6 11 5.1-1-5-4-10-11-11z"/></svg>

<svg xmlns="http://www.w3.org/2000/svg" width="24" height="24" viewBox="0 0 24 24">
  <path fill="#677078" d="M7,8 L7,5 L0,12 L7,19 L7,16 L3,12 L7,8 Z M13,9 L13,5 L6,12 L13,19 L13,14.9 C18,14.9 21.5,16.5 24,20 C23,15 20,10 13,9 Z"/>
</svg>
